src/theme/images/streamlineIcons/list-outline.svg

<svg fill="none" height="24" viewBox="0 0 24 24" width="24" xmlns="http://www.w3.org/2000/svg" xmlns:xlink="http://www.w3.org/1999/xlink"><clipPath id="a"><path d="m0 0h24v24h-24z"/></clipPath><g clip-path="url(#a)" stroke="#5e5e5e" stroke-linecap="round" stroke-linejoin="round" stroke-width="1.5"><path d="m.75.74707h22.5v4.5h-22.5z"/><path d="m.75 9.74805h22.5v4.49995h-22.5z"/><path d="m.75 18.748h22.5v4.5h-22.5z"/></g></svg>

<svg width="24" height="24" viewBox="0 0 24 24" fill="none" xmlns="http://www.w3.org/2000/svg">
<g clip-path="url(#clip0)">
<path d="M0.75 0.74707H23.25V5.24707H0.75V0.74707Z" stroke="#5E5E5E" stroke-width="1.5" stroke-linecap="round" stroke-linejoin="round"/>
<path d="M0.75 9.74805H23.25V14.248H0.75V9.74805Z" stroke="#5E5E5E" stroke-width="1.5" stroke-linecap="round" stroke-linejoin="round"/>
<path d="M0.75 18.748H23.25V23.248H0.75V18.748Z" stroke="#5E5E5E" stroke-width="1.5" stroke-linecap="round" stroke-linejoin="round"/>
</g>
<defs>
<clipPath id="clip0">
<rect width="24" height="24" fill="white"/>
</clipPath>
</defs>
</svg>
